X: 2
T: H\onsef\odder
O: Denmark
Z: John Chambers <jc:trillian.mit.edu>
R: jig
M: 6/8
L: 1/8
K: G
|: "G"B2G GFG | B2G GFG | "A7"A2A A-B^c | "D7"d3 d2c |
w: H\on-se-f\od-der og gu-le-r\od-der og hal-sen af* en sva-ne,
|  "G"B2G G-FG | B2G G-FG | "D7"A2A D-EF | "G"G3 Gz2 :|
w: den som kys-*ser pi-ger-ne* han har en h\aes-*lig va-ne.
|: "G"g2g g-fe | d2d d-cB | "A7"A2A A-B^c | "D7"d3 def |
w: Jeg er f\odt* i En-ge-land* og du er f\odt i Sk\aa-*ne,
| "G"g2g gfe | d2d d-cB | "D7"A2A DEF | "G"G3 Gz2 :|
w: vil du v\ae-re min lil-le mand*  s\aa vil jeg v\ae-re din ko-ne.
